Obsidian/actions/16s/align-horizontal-right.svg

<svg height="16" viewBox="0 0 16 16" width="16" xmlns="http://www.w3.org/2000/svg"><path d="m12 1v1h-10v4h10v4h-10v4h10v1h2v-14z" fill="#bebebe"/></svg>

<svg xmlns="http://www.w3.org/2000/svg" width="16" height="16" viewBox="0 0 16 16">
 <defs>
  <style id="current-color-scheme" type="text/css">
   .ColorScheme-Text { color:#bebebe; } .ColorScheme-Highlight { color:#4285f4; }
  </style>
 </defs>
 <path style="fill:currentColor" class="ColorScheme-Text" d="M 12 1 L 12 2 L 2 2 L 2 6 L 12 6 L 12 10 L 2 10 L 2 14 L 12 14 L 12 15 L 14 15 L 14 1 L 12 1 z"/>
</svg>
